build/images/lazyload-card-small.svg

<svg width="640" height="288" xmlns="http://www.w3.org/2000/svg"><g fill="none" fill-rule="evenodd"><path d="M0 0h640v288H0z"/><path d="M0 0h288v24H0V0zm0 98h72v12H0V98zm0-32h72v12H0V66zm0 64h72v12H0v-12zm0 32h72v12H0v-12zm0 32h72v12H0v-12zm0 32h72v12H0v-12zm0 48h72v12H0v-12zM128 98h144v12H128V98zm0 32h144v12H128v-12zm0 32h144v12H128v-12zm0 32h144v12H128v-12zm0 32h144v12H128v-12zm0 48h144v12H128v-12zm0-208h72v12h-72V66zm184 32h144v12H312V98zm0 32h144v12H312v-12zm0 32h144v12H312v-12zm0 32h144v12H312v-12zm0 32h144v12H312v-12zm0 48h144v12H312v-12zm0-208h72v12h-72V66zm184 32h144v12H496V98zm0 32h144v12H496v-12zm0 32h144v12H496v-12zm0 32h144v12H496v-12zm0 32h144v12H496v-12zm0 48h144v12H496v-12zm0-208h72v12h-72V66z" fill-opacity=".1" fill="#000"/></g></svg>

<?xml version="1.0" encoding="UTF-8"?>
<svg width="640px" height="288px" viewBox="0 0 640 288" version="1.1" xmlns="http://www.w3.org/2000/svg" xmlns:xlink="http://www.w3.org/1999/xlink">
    <!-- Generator: sketchtool 52.6 (67491) - http://www.bohemiancoding.com/sketch -->
    <title>A7532EED-00D3-4564-A462-4B03E4A8524E</title>
    <desc>Created with sketchtool.</desc>
    <g id="Symbols" stroke="none" stroke-width="1" fill="none" fill-rule="evenodd">
        <g id="graphic/lazyload/small">
            <g id="Group">
                <g id="icon">
                    <rect id="Rectangle" x="0" y="0" width="640" height="288"></rect>
                    <path d="M0,0 L288,0 L288,24 L0,24 L0,0 Z M0,98 L72,98 L72,110 L0,110 L0,98 Z M0,66 L72,66 L72,78 L0,78 L0,66 Z M0,130 L72,130 L72,142 L0,142 L0,130 Z M0,162 L72,162 L72,174 L0,174 L0,162 Z M0,194 L72,194 L72,206 L0,206 L0,194 Z M0,226 L72,226 L72,238 L0,238 L0,226 Z M0,274 L72,274 L72,286 L0,286 L0,274 Z M128,98 L272,98 L272,110 L128,110 L128,98 Z M128,130 L272,130 L272,142 L128,142 L128,130 Z M128,162 L272,162 L272,174 L128,174 L128,162 Z M128,194 L272,194 L272,206 L128,206 L128,194 Z M128,226 L272,226 L272,238 L128,238 L128,226 Z M128,274 L272,274 L272,286 L128,286 L128,274 Z M128,66 L200,66 L200,78 L128,78 L128,66 Z M312,98 L456,98 L456,110 L312,110 L312,98 Z M312,130 L456,130 L456,142 L312,142 L312,130 Z M312,162 L456,162 L456,174 L312,174 L312,162 Z M312,194 L456,194 L456,206 L312,206 L312,194 Z M312,226 L456,226 L456,238 L312,238 L312,226 Z M312,274 L456,274 L456,286 L312,286 L312,274 Z M312,66 L384,66 L384,78 L312,78 L312,66 Z M496,98 L640,98 L640,110 L496,110 L496,98 Z M496,130 L640,130 L640,142 L496,142 L496,130 Z M496,162 L640,162 L640,174 L496,174 L496,162 Z M496,194 L640,194 L640,206 L496,206 L496,194 Z M496,226 L640,226 L640,238 L496,238 L496,226 Z M496,274 L640,274 L640,286 L496,286 L496,274 Z M496,66 L568,66 L568,78 L496,78 L496,66 Z" id="graphic/lazyload/small" fill-opacity="0.1" fill="#000000"></path>
                </g>
            </g>
        </g>
    </g>
</svg>
